src/pictures/icons/leaveicon.svg

<svg width="24" height="24" viewBox="0 0 24 24" fill="none" xmlns="http://www.w3.org/2000/svg">
<path d="M8.90039 7.56023C9.21039 3.96023 11.0604 2.49023 15.1104 2.49023H15.2404C19.7104 2.49023 21.5004 4.28023 21.5004 8.75023V15.2702C21.5004 19.7402 19.7104 21.5302 15.2404 21.5302H15.1104C11.0904 21.5302 9.24039 20.0802 8.91039 16.5402" stroke="#F54749" stroke-width="1.5" stroke-linecap="round" stroke-linejoin="round"/>
<path d="M15.0001 12H3.62012" stroke="#F54749" stroke-width="1.5" stroke-linecap="round" stroke-linejoin="round"/>
<path d="M5.85 8.65039L2.5 12.0004L5.85 15.3504" stroke="#F54749" stroke-width="1.5" stroke-linecap="round" stroke-linejoin="round"/>
</svg>

<svg width="24" height="24" fill="none" xmlns="http://www.w3.org/2000/svg"><path d="M8.9 7.56c.31-3.6 2.16-5.07 6.21-5.07h.13c4.47 0 6.26 1.79 6.26 6.26v6.52c0 4.47-1.79 6.26-6.26 6.26h-.13c-4.02 0-5.87-1.45-6.2-4.99M15 12H3.62M5.85 8.65 2.5 12l3.35 3.35" stroke="#F54749" stroke-width="1.5" stroke-linecap="round" stroke-linejoin="round"/></svg>
